X:1
T:Improvisation No. 15 in C  Minor
T:Improvisation No. 15 in C  Minor
T:Hommage à Edith Piaf
T:Francis Poulenc
C:Francis Poulenc
%%score { ( 1 2 4 ) | ( 3 5 6 ) }
L:1/8
Q:1/4=115
M:9/8
K:Eb
V:1 treble nm="Piano" snm="Pno."
V:2 treble 
V:4 treble 
V:3 bass 
V:5 bass 
V:6 bass 
V:1
"^T rè vite"!mf! c!<(!de!<)!!mf![Q:3/8=92] g3- gfg |!>(! ed!>)!!mp!c!mf! g3- gf!>(!g | %2
[M:6/8] ed!>)!!mp!c!mf! d2 c |[M:9/8][Q:1/4=130] B=AG[Q:1/4=120] ABc d3 | %4
[M:6/8]!mp![Q:1/4=120]"^Céder un peu" _AGd F2 E | %5
[M:9/8][Q:1/4=92]!p! DEF G z !breath!z!pp![Q:1/4=80]"^Lent" cde | %6
[Q:1/4=120]"^Tempo subito" g3- g[Q:1/4=138]fg{/de} dcB |!p! f3- fef{/cd} cBA | e3- ede dc=B | %9
!<(! c_B_A G3!<)!!f! CDE | G3- GFG{/DE} DCB, | F3- FEF{/CD} CB,=A, | %12
 [G,D][B,G][DB] [Gd]3 [Ec][DB][C_A] | G6!pp! g3 | a3- a=Bc def | g3- g!pp!G=A =Bcd | %16
 e2 f e2 f{/ef} edc |[Q:1/4=110]"^Cédar" d6!f! !tenuto![Cc]!<(!!tenuto![Dd]!tenuto![Ee]!<)! | %18
!ff![Q:1/4=138]"^Tempo" g3- gfg{/de} dcB | f3- fef{/cd} cBA | e3- ed!ff!e!>(! dc=B!>)! | %21
!mf! c!<(!_B_A G3!<)!!f! CDE | G3- GFG{/DE} DCB, | %23
 F3- FE!mf!F[Q:1/4=110]"^Cédar"!>(!{/CD} CB,=A,!>)! |!mp! E3- EDE DC=B, | %25
[M:6/8][Q:1/4=80]"^Lent" C6 ||[K:C][M:9/8]!mf![Q:1/4=138]"^Tempo" e3 e'3- e'd'e' | %27
[M:6/8]{/c'd'} c'ae a2 g |[M:9/8] e2 ^G ABc def | e3 e'3 z d'e' | %30
[M:12/8][Q:1/4=120]"^Cédar beacoup"!>(!{/c'd'} c'ae[Q:1/4=110] f=ga[Q:1/4=92] b f!>)!!p!!breath!e[Q:1/4=80]"^Lent"!<(! A=Bc!<)! | %31
[M:9/8]!mf![Q:1/4=138]"^a tempo" e3- ede{/Bc} BAG | d3- dcd{/AB} AGF | c3- cBc!>(! BA^G!>)! | %34
!mp![Q:1/4=120] A=GF E3!f![Q:1/4=138] ABc | e3- ede{/Bc} BAG | d3- dcd!>(!{/AB} AG^F!>)! | %37
[M:12/8]!p! Be^d ^G^cB EAG B,DG |!mf! _e_ag cfe _A_dc _E3 | %39
 _A3[Q:1/4=120]"^Cédar"!>(! =B3[Q:1/4=110] d3[Q:1/4=80]"^Lent" cd_e!>)! || %40
[K:Eb][M:9/8]!pp![Q:1/4=138]"^Tempo subito" g3- gfg dcB | f3- fef{/cd} cBA | e3- ede dc=B | %43
!<(! c_B_A G3!<)!!f! CDE | G3- GFG{/DE} DCB, | F3- FEF{/CD} CB,=A, | %46
 [G,D][B,G][DB] [Gd]3 [Ec][DB][C_A] |[Q:1/4=120]"^Cédar" G6!pp! g3[Q:1/4=110] | %48
[Q:1/4=138]"^a Tempo" a3- a=Bc def | g3- g!pp!G=A =Bcd | e2 f e2 f{/ef} edc | %51
[Q:1/4=120] d6!f! !tenuto![Cc]!<(!!tenuto![Dd]!tenuto![Ee]!<)! |!ff![Q:1/4=138] g3- gfg{/de} dcB | %53
 f3- fef{/cd} cBA | e3- ed!ff!e!>(! dc=B!>)! |!mf! c!<(!_B_A G3!<)!!f! CDE |!f! G3- GFG{/DE} DEC | %57
!mf! G3- G[Q:1/4=120]"^Cédar"!mp!FG!>(!{/DE} DEC!>)! | %58
!p![Q:1/4=110] A3[Q:1/4=80]"^cédar encore" =B3[Q:1/4=60] d3 | %59
!pp![Q:1/4=72] =e'6-[Q:1/4=48]!pp! e'3-[Q:1/4=60]"^tenu" |[Q:1/4=72] e'6- !breath!e'3 | %61
!pp! [C_E]6- [CE]3 |!ppp! [G,CE]6- [G,CE]3- | [G,CE] z z |] %64
V:2
!p! GGG!ped! [Ad][Ad][Ad] [Ad][Ad][Ad]!ped-up! | [Gc]GG!ped! [Ad][Ad][Ad] [Ad][Ad][Ad]!ped-up! | %2
[M:6/8] [Gc]GG [E=A][EA][EA] |[M:9/8] [DG]DD [CG][CG][CG] ^F3 | %4
[M:6/8]!ped![I:staff +1] z A,=B,!ped-up!!ped! A,2 G,!ped-up! | %5
[M:9/8] z C,D,-!ped! D, z z!ped-up!!p! z!pp! EC | %6
!p!!ped! z!pp! [F,A,][F,A,]!ped-up! [A,C]3!p!!ped! z!pp! DA,!ped-up! | %7
!ped! z!pp![I:staff -1] [EG][EG]!ped-up! [GB]3!p!!ped![I:staff +1] x3!ped-up! | %8
!p!!ped! z!pp![I:staff -1] [E^F][EF]!ped-up! [E=A]3!p!!ped! [=F_A]3!ped-up! | %9
!p! [CE]6!mp![I:staff +1] x3 |!mf!!ped! z!mp![I:staff -1] [A,C][A,C]!ped-up![I:staff +1] x2 x4 | %11
!ped! z!mp![I:staff -1] [G,B,][G,B,]!ped-up![I:staff +1] x2 x!mf![I:staff -1] G,3 | %12
!ped![I:staff +1] z!mp! B,,D, G,B,D!ped-up! ^F,2 D, | %13
!mf!!ped! z!mp![I:staff -1] [G,=B,][B,D][I:staff +1] z!p![I:staff -1] [DG]!ped-up![G=B]!ped![I:staff +1] z!pp![I:staff -1] [GB][Bd]!ped-up! | %14
!p!!ped![I:staff +1] z!pp![I:staff -1] [F=B][FB][I:staff +1] z[I:staff -1] F2-!ped-up! F3 | %15
!p!!ped![I:staff +1] z [_B,E]A, G,!pp!B,F,!ped-up! E,3 | %16
!p!!ped! z!pp![I:staff -1] [E=A]2[I:staff +1] z [CE]2!ped-up! z [E^F]2 | %17
!p!!ped! z[I:staff -1] [F_A]G[I:staff +1] z[I:staff -1] FD!ped-up!!mf! E2[I:staff +1] x | %18
!mp!!ped! z[I:staff -1] [EA][EA] [Ac]2[I:staff +1] x4!ped-up!!ped!!ped-up! | %19
!ped! z[I:staff -1] [EG][EG]!ped-up! [GB]3!ped![I:staff +1] x3!ped-up! | %20
!ped! z[I:staff -1] [E^F][EF]!ped-up! [E=A]3!ped! [=F_A]3!ped-up! | %21
!mp! [CE]6!mf!!ped![I:staff +1] x3!ped-up! | %22
!mf!!ped! z!mp![I:staff -1] [A,C][A,C]!ped-up![I:staff +1] x2!ped! x4!ped-up! | %23
!ped! z!mp![I:staff -1] [G,B,][G,B,]!ped-up![I:staff +1] x2 x!ped![I:staff -1] G,3!ped-up! | %24
[I:staff +1] z[I:staff -1] [^F,=A,]2[I:staff +1] x3!ped![I:staff -1] [=F,_A,]3!ped-up! | %25
[M:6/8][I:staff +1] z [F,_A,]D, !tenuto!=E,3- || %26
[K:C][M:9/8]!mp!!ped![I:staff -1] C EG!ped-up!!ped![I:staff +1] x2 x4!ped-up! | %27
[M:6/8]!ped! z [A,CE][A,CE]!ped-up! z!ped! [_B,CE][B,CE]!ped-up! | %28
[M:9/8]!mp!!ped! z!mp![I:staff -1] F2!ped-up! E3!ped! F3!ped-up! | %29
!mp!!ped![I:staff +1] z!mp![I:staff -1] E=G!ped-up!!ped![I:staff +1] z[I:staff -1] e^g[I:staff +1] z!ped-up!!ped![I:staff -1] g2 | %30
[M:12/8][I:staff +1] x3!ped-up!!mp!!ped! x!p![I:staff -1] c2!ped-up!!mp!!ped![I:staff +1] x!pp![I:staff -1] B[I:staff +1] x!ped-up!!mp!!ped! x!p![I:staff -1] E2!ped-up! | %31
[M:9/8]!mp!!ped![I:staff +1] z!p![I:staff -1] [FA][FA] [FA]3!ped-up!!mp![I:staff +1] x3 | %32
!ped! z!p![I:staff -1] [EG][EG] G3!ped-up!!mp! E3 | %33
!ped![I:staff +1] z!p![I:staff -1] [C^D][CD] [D^F]3!ped-up!!ped! [=D=F]3!ped-up! | %34
!ped! C6!mp!!ped! E3!ped-up! | %35
!mf!!ped![I:staff +1] z!mp![I:staff -1] [CF][CF]!ped-up! [FA]3!mf![I:staff +1] x3 | %36
!ped! z!mp![I:staff -1] [CE][CE] [EG]3!ped-up![I:staff +1] x3 | %37
[M:12/8]!pp!!ped![I:staff -1] E6-!ped-up!!ped! E3 B,3 | %38
!mp!!ped! _A6-!ped-up!!ped! _A3 _E3!ped-up! | %39
!ped![I:staff +1] z[I:staff -1] [C_E][=B,D][I:staff +1] z[I:staff -1] [DG]F[I:staff +1] z!ped-up![I:staff -1] [FA]G!p!!ped![I:staff +1] z[I:staff -1] G2!ped-up! || %40
[K:Eb][M:9/8]!pp!!ped![I:staff +1] z!pp![I:staff -1] [EA][EA] [Ac]3!pp!!ped-up!!ped![I:staff +1] x3 | x3!ped-up! %41
!pp!!ped! z!pp![I:staff -1] [EG][EG] [GB]3!pp!!ped-up!!ped![I:staff +1] x3!ped-up! | %42
!p!!ped! z!pp![I:staff -1] [E^F][EF] [E=A]3!ped-up!!p!!ped! [=F_A]3!ped-up! | %43
!p! [CE]6!mp![I:staff +1] x3 |!mf!!ped! z!mp![I:staff -1] [A,C][A,C][I:staff +1] x2 x4!ped-up! | %45
!ped! z!mp![I:staff -1] [G,B,][G,B,]!ped-up![I:staff +1] x2 x!mf![I:staff -1] G,3 | %46
!ped![I:staff +1] z!mp! B,,D,!ped-up! G,B,D ^F,2 D, | %47
!mf!!ped! z!mp![I:staff -1] [G,=B,][B,D][I:staff +1] z!p![I:staff -1] [DG][G=B]!ped-up!!ped![I:staff +1] z!pp![I:staff -1] [GB][Bd] | %48
!p!!ped![I:staff +1] z!pp![I:staff -1] [F=B][FB][I:staff +1] z[I:staff -1] F2- F3!ped-up! | %49
!p!!ped![I:staff +1] z [_B,E]A, G,!pp!B,F,!ped-up! E,3 | %50
!p!!ped! z!pp![I:staff -1] [E=A]2[I:staff +1] z [CE]2!ped-up! z [E^F]2 | %51
!p!!ped! z[I:staff -1] [F_A]G[I:staff +1] z[I:staff -1] FD!ped-up!!mf! E2[I:staff +1] x | %52
!mp!!ped! z[I:staff -1] [EA][EA] [Ac]2[I:staff +1] x4!ped-up!!ped! | %53
!ped! z[I:staff -1] [EG][EG]!ped-up! [GB]3!ped![I:staff +1] x3!ped-up! | %54
!ped! z[I:staff -1] [E^F][EF]!ped-up! [E=A]3!ped! [=F_A]3!ped-up! | %55
!mp! [CE]6!mf!!ped![I:staff +1] x3!ped-up! | %56
!mf!!ped! z!mp![I:staff -1] [A,C][A,C]!ped-up![I:staff +1] x2!ped! x4!ped-up! | %57
!mp!!ped! z!p![I:staff -1] [A,C][A,C]!ped-up![I:staff +1] x2 x4 | %58
!ped! x!pp![I:staff -1] [CE][=B,D][I:staff +1] x[I:staff -1] [DG][DG][I:staff +1] x[I:staff -1] AG!ped-up! | %59
!pp!!ped![I:staff +1] C,,,!pp!C,,!>(!G,, =E,_E,C z2 z!>)! |!pp!!8va(! g'3!ped-up!!8va)! x6 | %61
!ped! _E,6- E,3!ped-up! |!ped! [C,,E,]6- [C,,E,]3- | [C,,E,]!ped-up! z z |] %64
V:3
 EDC =B,3- B,2 B, | CDE =B,3- B,2 B, |[M:6/8] CDE F,2 ^F, |[M:9/8] G,2 G, E,2 E, D,3 | %4
[M:6/8] B,,3 C,3 |[M:9/8] F,,3 G,, x x C,,3 | F,,,6 B,,,3 | x9 | x9 | x9 | z C,D, E,F,G,!mf! x2 x | %11
 z B,,C, D,E,F, x x2 | D,,6- D,,3 | z D,G, z =B,D x3 | z [A,E][G,D] [F,C]A,E, D,3 | G,,,6- G,,,3 | %16
 x [^F,C]2 x2 x4 | z C=B, z A,G, x2 x | z [F,A,][F,A,] [A,C]3 x3 | x9 | x9 | x9 | %22
 z C,D, E,F,G,!mf! x2 x | z B,,C, D,E,F, x x2 | z =A,,B,, C,D,E, G,,2 G,,, | %25
[M:6/8] x _A,,C, G,,3- ||[K:C][M:9/8] [G,,E,] [G,C][G,CE] z [^G,CE][G,CE] z [A,CE][A,CE] | %27
[M:6/8] x6 |[M:9/8] z C^G, C3 x3 | z [=G,C][G,CE] z [^G,CE][G,CE] z [A,CE][A,CE] | %30
[M:12/8] z!mp! [A,CE][A,CE] x F2 x =D2 x C2 |[M:9/8] z [F,A,][A,C] [CE]3 x3 | %32
 z [E,G,][G,C] [CE]3 x3 | z [B,,^F,][F,A,] [A,C]3 ^G,3 | E,!p!=F,=G, A,B,C CB,A, | %35
 x [D,F,][F,A,] [A,C]3 x3 | x [E,G,][E,G,] [G,C]3 x3 |[M:12/8] ^G,B,A, E^D^C B,CB, G,3 | %38
 C_E_D _AGF EFE C3 | z _A,F, z B,A, z DB, z _EC ||[K:Eb][M:9/8] z [F,A,][F,A,] [A,C]3 z!pp! DA, | %41
 z [G,B,][G,B,] [B,E]3 z!pp! C[E,A,] | x9 | x9 | z C,D, E,F,G,!mf! x2 x | z B,,C, D,E,F, x x2 | %46
 D,,6- D,,3 | z D,G, z =B,D x3 | z [A,E][G,D] [F,C]A,E, D,3 | G,,,6- G,,,3 | x [^F,C]2 x2 x4 | %51
 z C=B, z A,G, x2 x | z [F,A,][F,A,] [A,C]3 x3 | x9 | x9 | x9 | z C,D, E,F,G,!mf! A,2 x | %57
 z C,D, E,F,G, z2 x | x x x4 x[I:staff -1] F2 | x9 |[I:staff +1][K:treble] x9 | %61
[K:bass] [C,,G,,]6- [C,,G,,]3 | x9 | x3 |] %64
V:4
 x9 | x9 |[M:6/8] x6 |[M:9/8] x9 |[M:6/8] [DF]3 DD E |[M:9/8] [A,C]3 =B, x x z G2 | x9 | x9 | x9 | %9
 x9 | x9 | x9 | x9 | x9 | x9 | z!pp! [G_B][GB] x2 x4 | x9 | x9 | x9 | x9 | x9 | x9 | x9 | x9 | x9 | %25
[M:6/8] x6 ||[K:C][M:9/8] x9 |[M:6/8] x6 |[M:9/8] x9 | x9 |[M:12/8] x12 |[M:9/8] x9 | x9 | x9 | %34
 x9 | x9 | x9 |[M:12/8] x12 | x12 | x12 ||[K:Eb][M:9/8] x9 | x9 | x9 | x9 | x9 | x9 | x9 | x9 | %48
 x9 | z!pp! [G_B][GB] x2 x4 | x9 | x9 | x9 | x9 | x9 | x9 | x9 | x9 | x9 | x6 _E=E!tenuto!c | %60
!8va(! x3!8va)! x6 | x9 | x9 | x3 |] %64
V:5
 x9 | x9 |[M:6/8] x6 |[M:9/8] x9 |[M:6/8] x6 |[M:9/8] x9 | x9 | %7
 z [G,B,][G,B,] [B,E]3 z!pp! C[E,A,] | z [D,^F,][D,F,] [F,C]3 z!pp! =B,A, | %9
 z!pp! C,!<(!D, E,=F,G,-!<)! G, z z | [F,,,F,,]6 [B,,,B,,]3 | [E,,,E,,]6 [=A,,,=A,,]3 | x9 | %13
 G,,,6- G,,,3 | G,,6- G,,3 | x9 | G,,6- G,,3 | G,,,6 C,,3 | [F,,,F,,]6 [B,,,B,,]3 | %19
 z [G,B,][G,B,] [B,E]3 x x2 | z [D,^F,][D,F,] [=A,C]3 x3 | z C,!<(!D, E,=F,G,-!<)! G,3 | %22
 [F,,,F,,]6 [B,,,B,,]3 | [E,,,E,,]6 =A,,2!p! A,,, | [D,,,D,,]6 x3 |[M:6/8] C,,6- || %26
[K:C][M:9/8] C,,6- C,,3- |[M:6/8] C,,6 |[M:9/8] x3 F,E,F, ^G,=B,G, | C,,6- C,,3- | %30
[M:12/8] x3 z ^DA, z A,^G, z A,E, |[M:9/8] D,,6 G,,,3 | C,,6 F,,,3 | B,,,6{/E,,-} E,,3 | %34
 A,,6- A,,3 | D,,6 G,,3 | C,,6 !>!^F,,3 |[M:12/8] B,,6- B,,6 | _E,6- E,6 | G,,,6- G,,,3 C,,3 || %40
[K:Eb][M:9/8] !>!F,,,6 B,,,3 | !>!E,,,6 [B,,,B,,]3 | z [D,^F,][D,F,] [F,C]3 z!pp! =B,A, | %43
 z!pp! C,!<(!D, E,=F,G,-!<)! G, z z | [F,,,F,,]6 [B,,,B,,]3 | [E,,,E,,]6 [=A,,,=A,,]3 | x9 | %47
 G,,,6- G,,,3 | G,,6- G,,3 | x9 | G,,6- G,,3 | G,,,6 C,,3 | [F,,,F,,]6 [B,,,B,,]3 | %53
 z [G,B,][G,B,] [B,E]3 x x2 | z [D,^F,][D,F,] [=A,C]3 x3 | z C,!<(!D, E,=F,G,-!<)! G,3 | %56
 [F,,,F,,]6- [F,,,F,,]3 | [F,,,F,,]6- [F,,,F,,]3- | z F,F, z A,A, z =B,B, | x9 |[K:treble] x9 | %61
[K:bass] x9 | x9 | x3 |] %64
V:6
 x9 | x9 |[M:6/8] x6 |[M:9/8] x9 |[M:6/8] x6 |[M:9/8] x9 | x9 | E,,,6 A,,,3 | D,,6 G,,,3 | %9
 C,,6 x3 | x9 | x9 | x9 | x9 | x9 | x9 | x9 | x9 | x9 | [E,,,E,,]6 [A,,,A,,]3 | %20
 [D,,,D,,]6 [G,,,G,,]3 | C,,6- C,,3 | x9 | x9 | x9 |[M:6/8] x6 ||[K:C][M:9/8] x9 |[M:6/8] x6 | %28
[M:9/8] F,,,6- F,,,3 | x9 |[M:12/8] C,,3 B,,,3 E,,,3 A,,,3 |[M:9/8] x9 | x9 | x9 | x9 | x9 | x9 | %37
[M:12/8] x12 | x12 | x12 ||[K:Eb][M:9/8] x9 | x9 | D,,6 G,,,3 | C,,6- C,,3 | x9 | x9 | x9 | x9 | %48
 x9 | x9 | x9 | x9 | x9 | [E,,,E,,]6 [A,,,A,,]3 | [D,,,D,,]6 [G,,,G,,]3 | C,,6- C,,3 | x9 | x9 | %58
 [F,,,F,,]6- [F,,,F,,]3 | x9 |[K:treble] x9 |[K:bass] x9 | x9 | x3 |] %64

